src/assets/border-light.svg

<svg width="5893" height="5684" viewBox="0 0 5893 5684" fill="none" xmlns="http://www.w3.org/2000/svg">
<mask id="path-1-inside-1_1063_2" fill="white">
<path d="M5893 5684H0V0H5893V5684ZM109 43.0156C73.6539 43.0156 45.0002 71.6686 45 107.015V5575.98C45 5611.33 73.6538 5639.98 109 5639.98H5784C5819.35 5639.98 5848 5611.33 5848 5575.98V107.015C5848 71.6686 5819.35 43.0156 5784 43.0156H109Z"/>
</mask>
<path d="M5893 5684H0V0H5893V5684ZM109 43.0156C73.6539 43.0156 45.0002 71.6686 45 107.015V5575.98C45 5611.33 73.6538 5639.98 109 5639.98H5784C5819.35 5639.98 5848 5611.33 5848 5575.98V107.015C5848 71.6686 5819.35 43.0156 5784 43.0156H109Z" fill="#FFFFFF"/>
<path d="M5893 5684V5688H5897V5684H5893ZM0 5684H-4V5688H0V5684ZM0 0V-4H-4V0H0ZM5893 0H5897V-4H5893V0ZM45 107.015L41 107.015V107.015H45ZM5848 107.015H5852V107.015L5848 107.015ZM5893 5684V5680H0V5684V5688H5893V5684ZM0 5684H4V0H0H-4V5684H0ZM0 0V4H5893V0V-4H0V0ZM5893 0H5889V5684H5893H5897V0H5893ZM109 43.0156V39.0156C71.4448 39.0156 41.0002 69.4594 41 107.015L45 107.015L49 107.015C49.0002 73.8778 75.863 47.0156 109 47.0156V43.0156ZM45 107.015H41V5575.98H45H49V107.015H45ZM45 5575.98H41C41 5613.54 71.4446 5643.98 109 5643.98V5639.98V5635.98C75.8629 5635.98 49 5609.12 49 5575.98H45ZM109 5639.98V5643.98H5784V5639.98V5635.98H109V5639.98ZM5784 5639.98V5643.98C5821.56 5643.98 5852 5613.54 5852 5575.98H5848H5844C5844 5609.12 5817.14 5635.98 5784 5635.98V5639.98ZM5848 5575.98H5852V107.015H5848H5844V5575.98H5848ZM5848 107.015L5852 107.015C5852 69.4595 5821.56 39.0156 5784 39.0156V43.0156V47.0156C5817.14 47.0156 5844 73.8778 5844 107.015L5848 107.015ZM5784 43.0156V39.0156H109V43.0156V47.0156H5784V43.0156Z" fill="#BBBBBB" mask="url(#path-1-inside-1_1063_2)"/>
<rect x="2" y="2" width="5889" height="5680" stroke="#FFFFFF" stroke-width="4"/>
</svg>

<svg xmlns="http://www.w3.org/2000/svg" width="5893" height="5684" fill="none" viewBox="0 0 5893 5684"><mask id="path-1-inside-1_1063_2" fill="#fff"><path d="M5893 5684H0V0h5893zM109 43.016c-35.346 0-64 28.653-64 63.999V5575.98c0 35.35 28.654 64 64 64h5675c35.35 0 64-28.65 64-64V107.015c0-35.346-28.65-64-64-64z"/></mask><path fill="#fff" d="M5893 5684H0V0h5893zM109 43.016c-35.346 0-64 28.653-64 63.999V5575.98c0 35.35 28.654 64 64 64h5675c35.35 0 64-28.65 64-64V107.015c0-35.346-28.65-64-64-64z"/><path fill="#bbb" d="M5893 5684v4h4v-4zM0 5684h-4v4h4zM0 0v-4h-4v4zm5893 0h4v-4h-4zM45 107.015h-4zm5803 0h4zM5893 5684v-4H0v8h5893zM0 5684h4V0h-8v5684zM0 0v4h5893v-8H0zm5893 0h-4v5684h8V0zM109 43.016v-4c-37.555 0-68 30.443-68 67.999h8c0-33.137 26.863-60 60-60zm-64 63.999h-4V5575.98h8V107.015zm0 5468.965h-4c0 37.56 30.445 68 68 68v-8c-33.137 0-60-26.86-60-60zm64 64v4h5675v-8H109zm5675 0v4c37.56 0 68-30.44 68-68h-8c0 33.14-26.86 60-60 60zm64-64h4V107.015h-8V5575.98zm0-5468.965h4c0-37.555-30.44-68-68-68v8c33.14 0 60 26.863 60 60zm-64-64v-4H109v8h5675z" mask="url(#path-1-inside-1_1063_2)"/><path stroke="#fff" stroke-width="4" d="M2 2h5889v5680H2z"/></svg>
